elementary-xfce/actions/16/document-print-preview.svg

<?xml version="1.0" encoding="UTF-8" standalone="no"?>
<svg
   xmlns:dc="http://purl.org/dc/elements/1.1/"
   xmlns:cc="http://creativecommons.org/ns#"
   xmlns:rdf="http://www.w3.org/1999/02/22-rdf-syntax-ns#"
   xmlns:svg="http://www.w3.org/2000/svg"
   xmlns="http://www.w3.org/2000/svg"
   xmlns:xlink="http://www.w3.org/1999/xlink"
   version="1.0"
   width="16"
   height="16"
   id="svg11300">
  <metadata
     id="metadata26427">
    <rdf:RDF>
      <cc:Work
         rdf:about="">
        <dc:format>image/svg+xml</dc:format>
        <dc:type
           rdf:resource="http://purl.org/dc/dcmitype/StillImage" />
      </cc:Work>
    </rdf:RDF>
  </metadata>
  <defs
     id="defs3">
    <linearGradient
       id="linearGradient3771">
      <stop
         id="stop3773"
         style="stop-color:white;stop-opacity:1"
         offset="0" />
      <stop
         id="stop3775"
         style="stop-color:#4d4d4d;stop-opacity:1"
         offset="1" />
    </linearGradient>
    <linearGradient
       id="linearGradient6866">
      <stop
         id="stop6868"
         style="stop-color:#828282;stop-opacity:1"
         offset="0" />
      <stop
         id="stop6870"
         style="stop-color:#aaa;stop-opacity:1"
         offset="1" />
    </linearGradient>
    <linearGradient
       id="linearGradient6842">
      <stop
         id="stop6844"
         style="stop-color:white;stop-opacity:1"
         offset="0" />
      <stop
         id="stop6846"
         style="stop-color:white;stop-opacity:0"
         offset="1" />
    </linearGradient>
    <linearGradient
       id="linearGradient6828">
      <stop
         id="stop6830"
         style="stop-color:#6e6e6e;stop-opacity:1"
         offset="0" />
      <stop
         id="stop6832"
         style="stop-color:#1e1e1e;stop-opacity:1"
         offset="1" />
    </linearGradient>
    <linearGradient
       id="linearGradient2366">
      <stop
         id="stop2368"
         style="stop-color:#2e3436;stop-opacity:1"
         offset="0" />
      <stop
         id="stop2370"
         style="stop-color:#555753;stop-opacity:1"
         offset="1" />
    </linearGradient>
    <linearGradient
       id="linearGradient8589">
      <stop
         id="stop8591"
         style="stop-color:#fefefe;stop-opacity:1"
         offset="0" />
      <stop
         id="stop8593"
         style="stop-color:#bebebe;stop-opacity:1"
         offset="1" />
    </linearGradient>
    <linearGradient
       x1="21.919418"
       y1="21"
       x2="22.007805"
       y2="33"
       id="linearGradient2867"
       xlink:href="#linearGradient6828"
       gradientUnits="userSpaceOnUse"
       gradientTransform="matrix(0.33544392,0,0,0.36881684,-0.05065306,-0.458053)" />
    <linearGradient
       x1="15.600636"
       y1="33"
       x2="15.335471"
       y2="21"
       id="linearGradient2869"
       xlink:href="#linearGradient2366"
       gradientUnits="userSpaceOnUse"
       gradientTransform="matrix(0.33544392,0,0,0.36881684,-0.05065306,-0.458053)" />
    <radialGradient
       cx="3.7590685"
       cy="11.918329"
       r="21"
       fx="3.7590685"
       fy="11.918329"
       id="radialGradient2872"
       xlink:href="#linearGradient6842"
       gradientUnits="userSpaceOnUse"
       gradientTransform="matrix(0.3170197,0.00536125,-0.00400368,0.19223751,0.43811555,6.4966532)" />
    <linearGradient
       x1="11.519291"
       y1="20"
       x2="11.50602"
       y2="37"
       id="linearGradient2875"
       xlink:href="#linearGradient8589"
       gradientUnits="userSpaceOnUse"
       gradientTransform="matrix(0.34883886,0,0,0.37500427,-0.37213199,-0.1876208)" />
    <linearGradient
       x1="20.561552"
       y1="36.999981"
       x2="20.278992"
       y2="19.999981"
       id="linearGradient2877"
       xlink:href="#linearGradient6866"
       gradientUnits="userSpaceOnUse"
       gradientTransform="matrix(0.34883886,0,0,0.37500427,-0.37213192,-0.18761334)" />
    <radialGradient
       cx="5"
       cy="5"
       r="4"
       fx="5"
       fy="5"
       id="radialGradient3777"
       xlink:href="#linearGradient3771"
       gradientUnits="userSpaceOnUse" />
    <linearGradient
       x1="10.24264"
       y1="7.9055414"
       x2="8.9341316"
       y2="9.3197546"
       id="linearGradient3793"
       xlink:href="#linearGradient3771"
       gradientUnits="userSpaceOnUse" />
  </defs>
  <rect
     width="10.999916"
     height="7.9999166"
     rx="0.29157397"
     ry="0.36184996"
     x="2.500042"
     y="3.5000422"
     id="rect2315"
     style="fill:#505050;fill-opacity:1;stroke:#3c3d3a;stroke-width:1.00008368;stroke-linecap:round;stroke-linejoin:round;stroke-miterlimit:4;stroke-opacity:1;stroke-dasharray:none;display:inline" />
  <g
     transform="matrix(0.69407228,0,0,0.73253891,2.4439816,0.13360126)"
     id="layer1">
    <path
       d="m 1.4976268,0.49762721 13.0047472,0.002374 c 0,3.90746299 0,11.09490679 0,15.00237279 -4.334914,0 -8.6698338,0 -13.0047472,0 0,-5.001584 0,-10.0031634 0,-15.00474638 z"
       id="rect2594"
       style="fill:#f4f4f4;fill-opacity:1;stroke:#b5b6b2;stroke-width:1.39577675;stroke-linecap:butt;stroke-linejoin:round;stroke-miterlimit:4;stroke-opacity:1;stroke-dasharray:none;stroke-dashoffset:0;display:inline" />
  </g>
  <path
     d="m 1.5050189,12.499854 c 0.025372,0.518058 -0.0657,1.075536 0.080353,1.555513 0.2739839,0.609191 0.8786674,0.408878 1.2830134,0.44374 0.0073,0.359613 0.029665,0.914771 0.3421077,0.991264 3.3005711,0.01952 6.2780675,0.0028 9.579015,0.0084 0.340644,0.01588 0.35312,-0.580789 0.342108,-0.959421 0.11125,-0.09326 0.427435,-0.01386 0.581072,-0.04021 0.38015,0.0815 0.844967,-0.329793 0.78162,-1.013691 0,-0.328519 0,-0.657045 0,-0.985562 -4.329764,0 -8.6595258,0 -12.9892892,0 z"
     id="rect6333"
     style="fill:#505050;fill-opacity:1;stroke:#3c3d3a;stroke-width:0.99970883;stroke-linecap:square;stroke-linejoin:miter;stroke-miterlimit:4;stroke-opacity:1;stroke-dasharray:none" />
  <path
     d="m 1.2251892,7.4999662 13.5496198,0 c 0.401775,0 0.725226,0.3477098 0.725226,0.7796206 l 0,5.2204472 -15.00006986,0 0,-5.2204472 c 0,-0.4319108 0.32345002,-0.7796206 0.72522406,-0.7796206 z"
     id="rect2313"
     style="fill:url(#linearGradient2875);fill-opacity:1;stroke:url(#linearGradient2877);stroke-width:0.99993199;stroke-linecap:round;stroke-linejoin:round;stroke-miterlimit:4;stroke-opacity:1;stroke-dasharray:none" />
  <path
     d="m 1.8170282,8.4999529 12.3659448,0 c 0.164502,0 0.317074,0.1374829 0.317074,0.2857221 l 0,3.714372 -13.0000942,0 0,-3.714372 c 0,-0.1482392 0.1525713,-0.2857221 0.3170754,-0.2857221 z"
     id="rect2374"
     style="opacity:0.9;fill:none;stroke:url(#radialGradient2872);stroke-width:0.99990565;stroke-linecap:round;stroke-linejoin:miter;stroke-miterlimit:4;stroke-opacity:1;stroke-dasharray:none;display:inline" />
  <rect
     width="9.0569839"
     height="4.0569844"
     x="3.471508"
     y="7.471508"
     id="rect2319"
     style="fill:url(#linearGradient2867);fill-opacity:1;stroke:url(#linearGradient2869);stroke-width:0.94301587;stroke-linecap:round;stroke-linejoin:miter;stroke-miterlimit:4;stroke-opacity:1;stroke-dasharray:none" />
  <path
     d="m 13,14 0,0.875 C 13,14.94425 12.93031,15 12.843749,15 l -9.687506,0 c -0.086562,0 -0.15625,-0.05575 -0.15625,-0.125 l 0,-0.875 L 13,14 z"
     id="rect6331"
     style="fill:#e6e6e6;fill-opacity:1;stroke:none" />
  <path
     d="m 7.2451566,6.5360694 c -0.050332,0.0187 -0.097798,0.044595 -0.1405588,0.076684 L 6.2550261,7.1479537 C 6.1257768,7.2238796 6.0351292,7.3469918 6.0082359,7.483129 5.9813423,7.6192662 6.021065,7.7539457 6.1163801,7.8497974 l 5.1408729,5.0156786 c 0.08856,0.09167 0.21845,0.140375 0.357259,0.133962 0.138811,-0.0064 0.27343,-0.06734 0.37025,-0.167573 l 0.880666,-0.910677 c 0.180174,-0.190375 0.179332,-0.465804 -0.002,-0.625159 L 7.6915481,6.6558266 C 7.5823369,6.5443855 7.4133138,6.4990403 7.2451566,6.5360694 z"
     id="path3220"
     style="fill:url(#linearGradient3793);fill-opacity:1;fill-rule:evenodd;stroke:none;display:inline" />
  <path
     d="m 8.0563342,5.0000002 c 0,1.6879668 -1.3683671,3.056334 -3.056334,3.056334 -1.6879668,0 -3.0563344,-1.3683672 -3.0563344,-3.0563341 0,-1.6879668 1.3683676,-3.0563343 3.0563344,-3.0563343 1.6879669,0 3.056334,1.3683675 3.056334,3.0563343 l 0,0 z"
     id="path2447"
     style="fill:white;fill-opacity:0.66666667;fill-rule:evenodd;stroke:url(#radialGradient3777);stroke-width:1.8873316;stroke-linecap:butt;stroke-linejoin:miter;stroke-miterlimit:4;stroke-opacity:1;stroke-dasharray:none" />
</svg>

<?xml version="1.0" encoding="UTF-8" standalone="no"?>
<svg
   version="1.0"
   width="16"
   height="16"
   id="svg11300"
   xmlns:xlink="http://www.w3.org/1999/xlink"
   xmlns="http://www.w3.org/2000/svg"
   xmlns:svg="http://www.w3.org/2000/svg"
   xmlns:rdf="http://www.w3.org/1999/02/22-rdf-syntax-ns#"
   xmlns:cc="http://creativecommons.org/ns#"
   xmlns:dc="http://purl.org/dc/elements/1.1/">
  <metadata
     id="metadata26427">
    <rdf:RDF>
      <cc:Work
         rdf:about="">
        <dc:format>image/svg+xml</dc:format>
        <dc:type
           rdf:resource="http://purl.org/dc/dcmitype/StillImage" />
      </cc:Work>
    </rdf:RDF>
  </metadata>
  <defs
     id="defs3">
    <linearGradient
       id="linearGradient3771">
      <stop
         id="stop3773"
         style="stop-color:white;stop-opacity:1"
         offset="0" />
      <stop
         id="stop3775"
         style="stop-color:#4d4d4d;stop-opacity:1"
         offset="1" />
    </linearGradient>
    <linearGradient
       id="linearGradient6866">
      <stop
         id="stop6868"
         style="stop-color:#828282;stop-opacity:1"
         offset="0" />
      <stop
         id="stop6870"
         style="stop-color:#aaa;stop-opacity:1"
         offset="1" />
    </linearGradient>
    <linearGradient
       id="linearGradient6842">
      <stop
         id="stop6844"
         style="stop-color:white;stop-opacity:1"
         offset="0" />
      <stop
         id="stop6846"
         style="stop-color:white;stop-opacity:0"
         offset="1" />
    </linearGradient>
    <linearGradient
       id="linearGradient6828">
      <stop
         id="stop6830"
         style="stop-color:#6e6e6e;stop-opacity:1"
         offset="0" />
      <stop
         id="stop6832"
         style="stop-color:#1e1e1e;stop-opacity:1"
         offset="1" />
    </linearGradient>
    <linearGradient
       id="linearGradient2366">
      <stop
         id="stop2368"
         style="stop-color:#2e3436;stop-opacity:1"
         offset="0" />
      <stop
         id="stop2370"
         style="stop-color:#555753;stop-opacity:1"
         offset="1" />
    </linearGradient>
    <linearGradient
       id="linearGradient8589">
      <stop
         id="stop8591"
         style="stop-color:#fefefe;stop-opacity:1"
         offset="0" />
      <stop
         id="stop8593"
         style="stop-color:#bebebe;stop-opacity:1"
         offset="1" />
    </linearGradient>
    <linearGradient
       x1="21.919418"
       y1="21"
       x2="22.007805"
       y2="33"
       id="linearGradient2867"
       xlink:href="#linearGradient6828"
       gradientUnits="userSpaceOnUse"
       gradientTransform="matrix(0.33544392,0,0,0.36881684,-0.05065306,-0.458053)" />
    <linearGradient
       x1="15.600636"
       y1="33"
       x2="15.335471"
       y2="21"
       id="linearGradient2869"
       xlink:href="#linearGradient2366"
       gradientUnits="userSpaceOnUse"
       gradientTransform="matrix(0.33544392,0,0,0.36881684,-0.05065306,-0.458053)" />
    <radialGradient
       cx="3.7590685"
       cy="11.918329"
       r="21"
       fx="3.7590685"
       fy="11.918329"
       id="radialGradient2872"
       xlink:href="#linearGradient6842"
       gradientUnits="userSpaceOnUse"
       gradientTransform="matrix(0.3170197,0.00536125,-0.00400368,0.19223751,0.43811555,6.4966532)" />
    <linearGradient
       x1="11.519291"
       y1="20"
       x2="11.50602"
       y2="37"
       id="linearGradient2875"
       xlink:href="#linearGradient8589"
       gradientUnits="userSpaceOnUse"
       gradientTransform="matrix(0.34883886,0,0,0.37500427,-0.37213199,-0.1876208)" />
    <linearGradient
       x1="20.561552"
       y1="36.999981"
       x2="20.278992"
       y2="19.999981"
       id="linearGradient2877"
       xlink:href="#linearGradient6866"
       gradientUnits="userSpaceOnUse"
       gradientTransform="matrix(0.34883886,0,0,0.37500427,-0.37213192,-0.18761334)" />
    <linearGradient
       x1="10.24264"
       y1="7.9055414"
       x2="8.9341316"
       y2="9.3197546"
       id="linearGradient3793"
       xlink:href="#linearGradient3771"
       gradientUnits="userSpaceOnUse" />
    <radialGradient
       cx="5"
       cy="5"
       r="4"
       fx="5"
       fy="5"
       id="radialGradient3777-3"
       xlink:href="#linearGradient3771"
       gradientUnits="userSpaceOnUse" />
  </defs>
  <rect
     width="10.999916"
     height="7.9999166"
     rx="0.29157397"
     ry="0.36184996"
     x="2.500042"
     y="3.5000422"
     id="rect2315"
     style="display:inline;fill:#505050;fill-opacity:1;stroke:#3c3d3a;stroke-width:1.00008;stroke-linecap:round;stroke-linejoin:round;stroke-miterlimit:4;stroke-dasharray:none;stroke-opacity:1" />
  <g
     transform="matrix(0.69407228,0,0,0.73253891,2.4439816,0.13360126)"
     id="layer1"
     style="display:inline">
    <path
       d="m 1.4976268,0.49762721 13.0047472,0.002374 c 0,3.90746299 0,11.09490679 0,15.00237279 -4.334914,0 -8.6698338,0 -13.0047472,0 0,-5.001584 0,-10.0031634 0,-15.00474679 z"
       id="rect2594"
       style="display:inline;fill:#f4f4f4;fill-opacity:1;stroke:#b5b6b2;stroke-width:1.39578;stroke-linecap:butt;stroke-linejoin:round;stroke-miterlimit:4;stroke-dasharray:none;stroke-dashoffset:0;stroke-opacity:1" />
  </g>
  <path
     d="m 1.5050189,12.499854 c 0.025372,0.518058 -0.0657,1.075536 0.080353,1.555513 0.2739839,0.609191 0.8786674,0.408878 1.2830134,0.44374 0.0073,0.359613 0.029665,0.914771 0.3421077,0.991264 3.3005711,0.01952 6.2780675,0.0028 9.579015,0.0084 0.340644,0.01588 0.35312,-0.580789 0.342108,-0.959421 0.11125,-0.09326 0.427435,-0.01386 0.581072,-0.04021 0.38015,0.0815 0.844967,-0.329793 0.78162,-1.013691 0,-0.328519 0,-0.657045 0,-0.985562 -4.329764,0 -8.6595258,0 -12.9892892,0 z"
     id="rect6333"
     style="display:inline;fill:#505050;fill-opacity:1;stroke:#3c3d3a;stroke-width:0.999709;stroke-linecap:square;stroke-linejoin:miter;stroke-miterlimit:4;stroke-dasharray:none;stroke-opacity:1" />
  <path
     d="M 1.2251892,7.4999662 H 14.774809 c 0.401775,0 0.725226,0.3477098 0.725226,0.7796206 V 13.500034 H 0.49996514 V 8.2795868 c 0,-0.4319108 0.32345002,-0.7796206 0.72522406,-0.7796206 z"
     id="rect2313"
     style="display:inline;fill:url(#linearGradient2875);fill-opacity:1;stroke:url(#linearGradient2877);stroke-width:0.999932;stroke-linecap:round;stroke-linejoin:round;stroke-miterlimit:4;stroke-dasharray:none;stroke-opacity:1" />
  <path
     d="M 1.8170282,8.4999529 H 14.182973 c 0.164502,0 0.317074,0.1374829 0.317074,0.2857221 v 3.714372 H 1.4999528 V 8.785675 c 0,-0.1482392 0.1525713,-0.2857221 0.3170754,-0.2857221 z"
     id="rect2374"
     style="display:inline;opacity:0.9;fill:none;stroke:url(#radialGradient2872);stroke-width:0.999906;stroke-linecap:round;stroke-linejoin:miter;stroke-miterlimit:4;stroke-dasharray:none;stroke-opacity:1" />
  <rect
     width="9.0569839"
     height="4.0569844"
     x="3.471508"
     y="7.471508"
     id="rect2319"
     style="display:inline;fill:url(#linearGradient2867);fill-opacity:1;stroke:url(#linearGradient2869);stroke-width:0.943016;stroke-linecap:round;stroke-linejoin:miter;stroke-miterlimit:4;stroke-dasharray:none;stroke-opacity:1" />
  <path
     d="m 13,14 v 0.875 C 13,14.94425 12.93031,15 12.843749,15 H 3.156243 C 3.069681,15 2.999993,14.94425 2.999993,14.875 V 14 Z"
     id="rect6331"
     style="display:inline;fill:#e6e6e6;fill-opacity:1;stroke:none" />
  <path
     d="m 7.2451566,6.5360694 c -0.050332,0.0187 -0.097798,0.044595 -0.1405588,0.076684 L 6.2550261,7.1479537 C 6.1257768,7.2238796 6.0351292,7.3469918 6.0082359,7.483129 5.9813423,7.6192662 6.021065,7.7539457 6.1163801,7.8497974 l 5.1408729,5.0156786 c 0.08856,0.09167 0.21845,0.140375 0.357259,0.133962 0.138811,-0.0064 0.27343,-0.06734 0.37025,-0.167573 l 0.880666,-0.910677 c 0.180174,-0.190375 0.179332,-0.465804 -0.002,-0.625159 L 7.6915481,6.6558266 C 7.5823369,6.5443855 7.4133138,6.4990403 7.2451566,6.5360694 Z"
     id="path3220"
     style="display:inline;fill:url(#linearGradient3793);fill-opacity:1;fill-rule:evenodd;stroke:none" />
  <path
     d="M 8,5.0000002 C 8,6.687967 6.6879662,8 4.9999992,8 3.3120326,8 2,6.687967 2,5.0000001 2,3.3120333 3.3120326,2 4.9999992,2 6.6879662,2 8,3.3120333 8,5.0000002 Z"
     id="path2447"
     style="fill:#ffffff;fill-opacity:0.666667;fill-rule:evenodd;stroke:url(#radialGradient3777-3);stroke-width:2;stroke-linecap:butt;stroke-linejoin:miter;stroke-miterlimit:4;stroke-dasharray:none;stroke-opacity:1" />
</svg>
